X: 2
T: the Shetland Fiddlers Society
R:strathspey
D:John Campbell, Cape Breton Violin Music (1975-2006)
C:Ronald Cooper
O:Shetland
Z:Paul Stewart Cranford (P.S.C.), <http://www.cranfordpub.com>
F:http://cranfordpub.com/tunes/abcs/campbell.abc
L:1/8
M:C
%Q:300
K:D
A, \
| D2 D>E D>F (3ABc | (3dcB (3ABc d>A F<D | E2 E<B G<B e>d | (3cde B>d c<A A>F |
| D2 D>E D>F (3ABc | (3dcB (3ABc d>A F<D | G>B E>G F<A D>F | G>B (3ABc d<D D :|
|: g \
| (3fed (3edc d>A F<A | (3def e>g f<d d>f | (3gfe (3fe^d e>B G>=d | (3cde B>d c<A A>g |
| (3fed (3edc d>A F<A | (3def e>g f>d A<F | G>B E>G F<A D>F | G>B (3ABc d<D D :|

%%sep 1 1 500

